!!!!SEGMENT: pl-wtm--r-275-m--003_moniuszko-stanislaw--pienia-zalobne-offertorium.krn
!!!cenid: 18xx:2973
!!!COM: Moniuszko, Stanisław
!!!COM-rismid: pe30008351
!!!CDT: 1819/05/05-1872/06/04
!!!CNT: Polish
!!!OPR: Pienia żałobne
!!!OTL: Offertorium
!!!OMV: 003
!!!PDT: 1869
!!!AGN: Sacred; Mass
!!!SMS-siglum: PL-Wtm
!!!SMS-shelfmark: R 275/M
!!!SMS-shelfwork: 001-003 M
!!!SMS-variant:
!!!SMS-altvar:
!!!NIFC-rismid: 1001096617
!!!URL-scan: http://repozytorium.nifc.pl/skany/pl-wtm-nut--r275m
!!!ONB-nifc: UWAGA: tylko partytura kwartetu smyczkowego. Części: 1. Kyrie, 2. Graduale,
**kern	**dynam	**kern	**dynam	**kern	**dynam	**kern	**dynam
*group1	*	*group1	*	*group1	*	*group1	*
*part4	*part4	*part3	*part3	*part2	*part2	*part1	*part1
*staff4	*	*staff3	*	*staff2	*	*staff1	*
*I"[Violoncello]	*	*I"[Viola]	*	*I"[Violino 2]	*	*I"[Violino 1]	*
*clefF4	*	*clefC3	*	*clefG2	*	*clefG2	*
*k[b-]	*	*k[b-]	*	*k[b-]	*	*k[b-]	*
*d:	*	*d:	*	*d:	*	*d:	*
*M8/8	*	*M8/8	*	*M8/8	*	*M8/8	*
*>[A,B,B1,B,B2,C]	*	*>[A,B,B1,B,B2,C]	*	*>[A,B,B1,B,B2,C]	*	*>[A,B,B1,B,B2,C]	*
=1	=1	=1	=1	=1	=1	=1	=1
*>A	*	*>A	*	*>A	*	*>A	*
*all\right	*	*all\right	*	*all\right	*	*all\right	*
!LO:TX:t=P:problem:all\right:global	!	!LO:TX:t=P:problem:all\right:global	!	!LO:TX:t=P:problem:all\right:global	!	!LO:TX:t=P:problem:all\right:global	!
!	!	!	!	!	!	!LO:TX:a:t=Lento aſsai	!
!	!LO:DY:rj	!	!LO:DY:a	!	!	!LO:TX:a:t=na Offertorium.	!
4D\	p	4D/	p	1r	.	1r	.
8E\L	.	8E/L	.	.	.	.	.
8F\J	.	8F/J	.	.	.	.	.
4A\	.	4A/	.	.	.	.	.
(>16G\LL	.	(<16G/LL	.	.	.	.	.
16F\	.	16F/	.	.	.	.	.
16E\	.	16E/	.	.	.	.	.
16D\JJ)	.	16D/JJ)	.	.	.	.	.
=2	=2	=2	=2	=2	=2	=2	=2
8.f^\L	.	8.f^>\L	.	8.f^</L	.	1ryy	.
16e\K	.	16e\K	.	16e/Jk	.	.	.
8.d^\	.	8.d^>\	.	8d/	.	.	.
.	.	.	.	8r	.	.	.
16A\Jk	.	16A\Jk	.	.	.	.	.
4F^\	.	4F^</	.	2ryy	.	.	.
!LO:TX:b:t=ten.	!	!	!	!	!	!	!
(4E^>tt\	.	(<4E^<tt/	.	.	.	.	.
=	=	=	=	=	=	=	=
8D\)	.	8D/)	.	4r	.	4r	.
!LO:TX:b:t=pizzi	!	!LO:TX:a:t=pizzi	!	!	!	!	!
8C#X\L	.	8C#X/L	.	.	.	.	.
8D\	.	8D/	.	4r	.	4r	.
8F\J	.	8F/J	.	.	.	.	.
=!|:	=!|:	=!|:	=!|:	=!|:	=!|:	=!|:	=!|:
*>B	*	*>B	*	*>B	*	*>B	*
8A\L	.	8A/L	.	4r	.	4r	.
8B-\	.	8B-/	.	.	.	.	.
8A\	.	8A/	.	4r	.	4r	.
8G\J	.	8G/J	.	.	.	.	.
=	=	=	=	=	=	=	=
8F\L	.	8F/L	.	2ryy	.	2ryy	.
8D\	.	8D/	.	.	.	.	.
8E\	.	8E/	.	.	.	.	.
8F\J	.	8F/J	.	.	.	.	.
!!LO:LB:g=original
=3	=3	=3	=3	=3	=3	=3	=3
8G\L	.	8G/L	.	2ryy	.	2ryy	.
8E\	.	8E/	.	.	.	.	.
8A\	.	8A/	.	.	.	.	.
8G\J	.	8G/J	.	.	.	.	.
=4	=4	=4	=4	=4	=4	=4	=4
8F\L	.	8F/L	.	1r	.	1r	.
8A\	.	8A/	.	.	.	.	.
8G\	.	8G/	.	.	.	.	.
8F\J	.	8F/J	.	.	.	.	.
8E\L	.	8E/L	.	.	.	.	.
8C\	.	8C/	.	.	.	.	.
8F\	.	8F/	.	.	.	.	.
8A\J	.	8A/J	.	.	.	.	.
=5	=5	=5	=5	=5	=5	=5	=5
!!mixed beam:problem
!LO:TX:t=P:problem:mixed beam	!	!	!	!	!	!	!
8c\L	.	8C/L	.	1r	.	1r	.
8F\	.	8F/	.	.	.	.	.
8G\	.	8G/J	.	.	.	.	.
!LO:TX:b:t=arco	!	!LO:TX:a:t=arco	!	!	!	!	!
(<8GG/J	.	(<8G/	.	.	.	.	.
8GG#X/L	.	8G#X/L	.	.	.	.	.
8AA/J)	.	8A/J)	.	.	.	.	.
(16BB-/LL	.	(<16B-X/LL	.	.	.	.	.
16BBn/	.	16Bn/	.	.	.	.	.
16C/	.	16c/	.	.	.	.	.
16C#X/JJ)	.	16c#X/JJ)	.	.	.	.	.
=6	=6	=6	=6	=6	=6	=6	=6
8D'/	.	8d'\	.	1r	.	1r	.
!!mixed beam:problem
!LO:TX:t=P:problem:mixed beam	!	!	!	!	!	!	!
!LO:TX:b:t=pizzi	!	!LO:TX:a:t=pizzi	!	!	!	!	!
8F/L	.	8G/L	.	.	.	.	.
8AA/	.	8A/	.	.	.	.	.
8D/J	.	8D/J	.	.	.	.	.
!!mixed beam:problem
!	!	!LO:TX:t=P:problem:mixed beam	!	!	!	!	!
8C#X/L	.	8C#X/L	.	.	.	.	.
8E/	.	8E/	.	.	.	.	.
8D/	.	8D/	.	.	.	.	.
8Cn/J	.	8cn\J	.	.	.	.	.
!!LO:PB:g=original
=7	=7	=7	=7	=7	=7	=7	=7
8BBn/L	.	8Bn/L	.	1r	.	1r	.
8BB-X/	.	8B-X/	.	.	.	.	.
8AA/	.	8A/	.	.	.	.	.
8GG#X/J	.	8G#X/J	.	.	.	.	.
8GGn/L	.	8Gn/L	.	.	.	.	.
8EE/	.	8E/	.	.	.	.	.
8AA/	.	8A/	.	.	.	.	.
8GG/J	.	8G/J	.	.	.	.	.
=8	=8	=8	=8	=8	=8	=8	=8
8FF/L	.	8F/L	.	1r	.	1r	.
8AA/	.	8A/	.	.	.	.	.
8D/	.	8d/	.	.	.	.	.
8F/J	.	8F/J	.	.	.	.	.
8A\L	.	8A/L	.	.	.	.	.
8C#X\	.	8C#X/	.	.	.	.	.
8E\	.	8E/	.	.	.	.	.
8AA\J	.	8A/J	.	.	.	.	.
=9	=9	=9	=9	=9	=9	=9	=9
8Cn\L	.	8Cn/L	.	1r	.	1r	.
8G\	.	8G/	.	.	.	.	.
8E\	.	8E/	.	.	.	.	.
8C\J	.	8C/J	.	.	.	.	.
8GG/L	.	8G/L	.	.	.	.	.
16BBn/L	.	8G/J	.	.	.	.	.
16D/JJ	.	.	.	.	.	.	.
8G/L	.	8G/	.	.	.	.	.
16GG/L	.	16G/LL	.	.	.	.	.
16AA/JJ	.	16A/JJ	.	.	.	.	.
=10	=10	=10	=10	=10	=10	=10	=10
8BB-X/L	<	8B-X/L	<	1r	.	1r	.
8D/	.	8d/	.	.	.	.	.
8F/	.	8F/	.	.	.	.	.
8A/J	[	8A/J	[	.	.	.	.
8G#X/L	sf >	8G#X/L	sf >	.	.	.	.
8E/	.	8E/	.	.	.	.	.
8D/	]	8D/	.	.	.	.	.
8BBn/J	.	8Bn/J	]]	.	.	.	.
!!LO:LB:g=original
=11	=11	=11	=11	=11	=11	=11	=11
*^	*	*	*	*	*	*	*
8AA/L	8AA\	.	8r	.	1r	.	1r	.
8AA/J 8A	8r	.	8A/	.	.	.	.	.
8AA/L	8AA\	.	8r	.	.	.	.	.
8AA/J 8A	8r	.	8A/	.	.	.	.	.
8AA/L	8AA\	.	8r	.	.	.	.	.
8AA/J 8A	8r	.	8A/	.	.	.	.	.
8AA/L	4ryy	.	8r	.	.	.	.	.
!	!	!	!LO:TX:a:t=arco	!	!	!	!	!
8AA/J 8A	.	.	8A/|	.	.	.	.	.
*v	*v	*	*	*	*	*	*	*
=12	=12	=12	=12	=12	=12	=12	=12
*tremolo	*	*	*	*	*	*	*
*2\right	*	*2\right	*	*	*	*	*
!LO:TX:a:t=arco	!LO:DY:rj	!	!	!	!LO:DY:rj	!	!LO:DY:rj
(8D'\L	ppp	2d\	.	(8.f/L	ppp	(<8.d/L 8.a	ppp
8D'\	.	.	.	.	.	.	.
.	.	.	.	16f'/K	.	16d'/K 16a	.
8D'\	.	.	.	8f'/	.	8d'/ 8a	.
8D'\J)	.	.	.	8f'/J)	.	8d'/J) 8a	.
*Xtremolo	*	*	*	*	*	*tremolo	*
*tremolo	*	*	*	*	*	*	*
(8C#X'/L	.	2c#X\	.	(8g'/L	.	(8e'/L 8a	.
8C#'/	.	.	.	8g'/	.	8e'/ 8a	.
8C#'/	.	.	.	8g'/	.	8e'/ 8a	.
8C#'/J)	.	.	.	8g'/J)	.	8e'/J) 8a	.
*Xtremolo	*	*	*	*	*	*Xtremolo	*
=13	=13	=13	=13	=13	=13	=13	=13
*tremolo	*	*	*	*	*	*	*
(8Cn'/L	.	2cn\	.	(8.f#X/L	.	8.e-X/L 8.a	.
8C'/	.	.	.	.	.	.	.
.	.	.	.	16f#'/K	.	16e-'/K 16a	.
8C'/	.	.	.	8f#'/	.	8e-'/ 8a	.
8C'/J)	.	.	.	8f#'/J)	.	8e-'/J 8a	.
*Xtremolo	*	*	*	*	*	*tremolo	*
*tremolo	*	*	*	*	*	*	*
(8BBn'/L	.	2Bn\ 2d	.	(8fn'/L	.	(8g#X'/L	.
8BB'/	.	.	.	8f'/	.	8g#'/	.
8BB'/	.	.	.	8f'/	.	8g#'/	.
8BB'/J)	.	.	.	8f'/J)	.	8g#'/J)	.
*Xtremolo	*	*	*	*	*	*Xtremolo	*
=14	=14	=14	=14	=14	=14	=14	=14
*tremolo	*	*	*	*	*	*	*
!LO:TX:t=P:problem:powinna wyświetlać się cała nuta	!	!	!	!	!	!	!
8BB-X/L	.	1B-X^<	.	(8.c#X/L 8.e	.	(<8.gn/L	.
8BB-/	.	.	.	.	.	.	.
.	.	.	.	16c#'/K 16e	.	16g'/K	.
8BB-/	.	.	.	8c#'/ 8e	.	8g'/	.
8BB-/J	.	.	.	8c#'/J) 8e	.	8g'/J)	.
8BB-/L	.	.	.	8d/	.	8fn/	.
8BB-/	.	.	.	4d/	.	4f/	.
8BB-/	.	.	.	.	.	.	.
8BB-/J	.	.	.	8d/	.	8f/	.
*Xtremolo	*	*	*	*	*	*	*
!!LO:LB:g=original
=15	=15	=15	=15	=15	=15	=15	=15
(<8GG/L	.	(<8B-/L	.	2d/	.	(<8e/L	.
8EE/	.	8G/	.	.	.	8b-/	.
8FF/	.	8A/	.	.	.	8a/	.
8GG/J)	.	8B-/J)	.	.	.	8g/J)	.
8AA/	.	4.A^/	.	4ryy	.	4.f/	.
4AA/	.	.	.	.	.	.	.
.	.	.	.	4c#X/	.	.	.
8AA/	.	8G/	.	.	.	8e/	.
=16	=16	=16	=16	=16	=16	=16	=16
*>B1	*	*>B1	*	*>B1	*	*>B1	*
!LO:TX:b:t=1ma	!	!	!	!	!	!LO:TX:a:t=1ma	!
8D\	.	8F/	.	4d/	.	4.d/	.
!LO:TX:a:t=pizzi	!	!LO:TX:a:t=pizzi	!	!	!	!	!
8C#X\L	.	8C#X/L	.	.	.	.	.
8D\	.	8D/	.	4ryy	.	.	.
8F\J	.	8F/J	.	.	.	8r	.
=17:|!	=17:|!	=17:|!	=17:|!	=17:|!	=17:|!	=17:|!	=17:|!
*>B2	*	*>B2	*	*>B2	*	*>B2	*
!LO:TX:b:t=2da	!LO:HP:a	!	!	!	!	!LO:TX:a:t=2da	!
2D\	<	(<8F/	<	4d/	<	(<8d/L	<
.	.	4A/)	.	.	.	8f/	.
.	.	.	.	4f/	.	8a/	.
.	.	8A/	.	.	.	8dd/J)	.
!	!LO:HP:a	!	!	!	!	!	!
2D\	[ > ]]	2d\	[ > ]]	4.a/	[ >	4.ff\	[ >
.	.	.	.	8g/	]	8ee\	]
=18	=18	=18	=18	=18	=18	=18	=18
*>C	*	*>C	*	*>C	*	*>C	*
1D;>	pp	1A;>	pp	1f;>	pp	1dd;>	pp
!!LO:PB:g=original
==	==	==	==	==	==	==	==
*-	*-	*-	*-	*-	*-	*-	*-
!!!system-decoration: [(g1)]
!!!ENC: Marcin Jachim
!!!END: 2021-08-16
!!!EED: Jędrzej Mróz
!!!ESR: 2021-09-15
!!!RDF**kern: > = above
!!!RDF**kern: < = below
!!!RDF**kern: | = vertical stroke
